X: 23029
T: Last Night's Joy
R: reel
M: 4/4
K: Dmixolydian
A2 AG FGAB|cG (3GGG EG (3GGG|(3AAA AG FD (3FGA|cdeg fdd:|
d2 fd adfd|c2 ec gc (3edc|(3ddd fd adfd|^ceag fddA|
d2 fd adfd|c2 ec gceg|afge fded|^cdeg fdd||

